X: 8
T: Christmas Eve
R: reel
M: 4/4
L: 1/8
K: Gmaj
G|~D3 E ~G3 A|~B2 dB ABGA|BAGE ~D2(3B,CD|GABG ABGE|
~D3 E ~G3 A|~B2 dB ABGA|BA ~A2 GEBG|ABGE ~G2 GE||
~D3 E ~G3 A|~B2 dB ABGA|BAGE DB,DE|GABG ABGE|
~D3 E ~G3 A|~B2 dB ABGA|BA ~A2 GEBG|ABGE ~G3 A||
BABd edeg|~a2 ge ~g2 eg|~a3 e gage|dedB ABGA|
BABd edeg|~a2 ge ~g2 eg|~a2 ge d2 BG|ABGE G3 A||
BABd ed (3efg|~a2 ge ~g2 eg|~a2 ge ~g2 ge|dedB ABGA|
BA (3Bcd ed (3efg|~a2 ge ~g2 (3efg|~a2 ge ~d2 BG|ABGE GBdc||
BABc dGBd|eg ~g2 egdc|BG ~G2 BGAG|EA ~A2 EAAc|
BABc dGBd|eg ~g2 egdg|~b2ag gedB|ABGE GBdc||
BABc dGBd|eg ~g2 egdc|BABc dGAG|EA ~A2 EAAc|
BG ~G2 DGBd|eg ~g2 egdg|~b2ag gedB|ABGE ~G2 GE|]


Tune 440	Setting 13302

